X:1
T:Santa Claus
T:Santa Claus
T:Album for the Young
T:Schumann, Op. 68, No. 12
C:Schumann, Op. 68, No. 12
%%score { ( 1 3 ) | 2 }
L:1/8
Q:1/4=126
M:2/4
K:C
V:1 bass nm="Piano" snm="Pno."
V:3 bass 
V:2 bass 
V:1
!f! !^!!1!A,,/B,,/A,,/B,,/ !^!!3!C,/B,,/C,/B,,/ | (!^!!1!A,,!2!B,,) (!^!!3!C,!5!E,) | %2
[K:treble] (!^!A,B,) (!^!CE) |!f! !4![E^GB]!f![EGB]!f! !5![EAc]2 | %4
[K:bass]!f! !^!A,,/B,,/A,,/B,,/ !^!C,/B,,/C,/B,,/ | (!^!A,,B,,) (!^!C,E,) | %6
[K:treble] (!^!A,B,) (!^!CE) |!f! [E^GB]!f![EGB]!f! A2 |:!f! !^!!3!_B,/A,/B,/A,/ !^!G,/A,/G,/A,/ | %9
 (!^!!3!_B,!1!G,) (!^!!3!G,!1!E,) |[K:treble] (!^!!3!!5![G_B][EG]) (!^!!3!!5![EG]!2!!3![^CE]) | %11
 !4![A,^CE][A,CE] [A,DF]2 |[K:bass] !^!!3!=C/=B,/C/B,/ !^!A,/B,/A,/B,/ | %13
 (!^!!3!C!1!A,) (!^!!4!A,!2!^F,) | %14
[K:treble] (!^!!3!!5![Ac]!1!!3![^FA]) (!^!!3!!5![FA]!1!!3![^DF]) | !2!!4![^D^F][DF] [B,E^G]2 | %16
 !^!!1!A,/!ff!B,/A,/B,/ !^!C/B,/C/B,/ | (!^!!1!A,B,) (!^!!3!CE) | (!^!!1!AB) (!^!ce) | %19
 !4![E^GB][EGB]!^!!5![EAc]!^!!4![E=GA^c] | !^!!5![FAd]2 !^!!3!F/E/F/E/ | (!^!!1!DE) (!^!FA) | %22
 (!^!!1!de) (!^!fa) |!f! !4![Be^g]!f![Beg]!f! [cea]2 ::[K:F]!p! (!3!c/!1!A/c/A/ c/A/!2!B/!1!G/ | %25
!<(! !3!A/!1!F/!4!B/!2!G/!<)!!>(! !5!c/!3!A/G/E/)!>)! | (A/F/A/F/ A/F/G/E/ | %27
!<(! A/F/!4!B/!2!G/ !5!c/!1!A/!4!d/!2!=B/)!<)! | (!5!e/!1!c/!3!e/c/ e/c/!2!d/=B/ | %29
!<(! !3!e/!1!c/!4!f/!2!d/!<)!!>(! !5!g/e/d/=B/)!>)! | (!4!e/c/e/c/ e/c/d/=B/ | %31
 !4!e/c/!3!d/=B/ !4!c/G/!3!_B/G/) :: (!4!B/!2!G/B/G/ B/G/B/G/ | B/G/B/G/ B/G/B/G/) | %34
 (!3!_A/"_cresc."F/A/F/ A/F/A/F/ | _A/F/A/F/ A/F/A/F/) |!p! (!5!F3 !4!_E | !5!F!4!_G_A!3!_E) | %38
 (F=G_AB |!>(! !5!c/E/!4!B/G/ E/!>)![I:staff +1] !1!C/B,/!3!G,/) | %40
!p![I:staff -1] (!3!c/A/c/A/ c/A/B/G/ |!<(! A/F/B/G/!<)!!>(! c/A/G/E/)!>)! | (A/F/A/F/ A/F/G/E/ | %43
!<(! A/F/B/G/!<)!!>(! c/A/E/F/)!>)! | (!5!d3 !4!c |!<(! !5!d!4!e!<)!!>(!f!4!d)!>)! | %46
 (!5!c!4!A !2!F)[DB] | (!2!!4![B,E]2 [A,F]) z :| %48
[K:C][K:bass]!f! !^!A,,/B,,/A,,/B,,/ !^!C,/B,,/C,/B,,/ | (!^!A,,B,,) (!^!C,E,) | %50
[K:treble] (!^!A,B,) (!^!CE) |!f! !4![E^GB]!f![EGB]!f! !5![EAc]2 | %52
[K:bass]!f! !^!A,,/B,,/A,,/B,,/ !^!C,/B,,/C,/B,,/ | (!^!A,,B,,) (!^!C,E,) | %54
[K:treble] (!^!A,B,) (!^!CE) |!f! [E^GB]!f![EGB]!f! A2 | %56
[K:bass]!f! !^!_B,/A,/B,/A,/ !^!G,/A,/G,/A,/ | (!^!_B,G,) (!^!G,E,) | %58
[K:treble] (!^![G_B][EG]) (!^![EG][^CE]) | [A,^CE][A,CE] [A,DF]2 | %60
[K:bass] !^!=C/=B,/C/B,/ !^!A,/B,/A,/B,/ | (!^!CA,) (!^!A,^F,) | %62
[K:treble] (!^![Ac][^FA]) (!^![FA][^DF]) | [^D^F][DF] [B,E^G]2 | %64
 !^!A,/!ff!B,/A,/B,/ !^!C/B,/C/B,/ | (!^!!1!A,B,) (!^!CE) | (!^!AB) (!^!ce) | %67
 [E^GB][EGB]!^![EAc]!^![E=GA^c] | !^![FAd]2 !^!F/E/F/E/ | (!^!DE) (!^!FA) | (!^!!1!de) (!^!fa) | %71
!f! [Be^g]!f![Beg]!f! [cea]2 |] %72
V:2
 !^!!4!A,,,/B,,,/A,,,/B,,,/ !^!!2!C,,/B,,,/C,,/B,,,/ | (!^!!4!A,,,!3!B,,,) (!^!!2!C,,!1!E,,) | %2
 (!^!!4!A,,B,,) (!^!C,E,) | !3!E,E, A,2 | !^!A,,,/B,,,/A,,,/B,,,/ !^!C,,/B,,,/C,,/B,,,/ | %5
 (!^!A,,,B,,,) (!^!C,,E,,) | (!^!A,,B,,) (!^!C,E,) | E,E, A,2 |: %8
 !^!!2!_B,,/A,,/B,,/A,,/ !^!G,,/A,,/G,,/A,,/ | (!^!!2!_B,,!4!G,,) (!^!!2!G,,!4!E,,) | %10
 (!^!!4!^C,,!2!E,,) (!^!!4!E,,!2!G,,) | !3!A,,A,, D,2 | %12
 !^!!1!=C,/=B,,/C,/B,,/ !^!A,,/B,,/A,,/B,,/ | (!^!!1!C,!3!A,,) (!^!!2!A,,!4!^F,,) | %14
 (!^!!4!^D,,!2!^F,,) (!^!!4!F,,!2!A,,) | !3!B,,B,, E,2 | !^!!4!A,,/B,,/A,,/B,,/ !^!C,/B,,/C,/B,,/ | %17
 (!^!!4!A,,B,,) (!^!!2!C,E,) | (!^!!4!A,B,) (!^!CE) | !2!E,E,!^!!1!A,!^!A,, | %20
 !^!!3!D,/!2!E,/D,/E,/ !^!!1!F,/!3!E,/F,/E,/ | (!^!!4!D,E,) (!^!F,A,) | %22
[K:treble] (!^!!4!DE) (!^!FA) | !3!EE A2 ::[K:F][K:bass] (!3!F,/!1!A,/F,/A,/ F,/A,/C,/!2!G,/ | %25
 !3!F,/A,/!4!G,/B,/ !3!A,/C/C,/!2!G,/) | (F,/A,/F,/A,/ F,/A,/C,/G,/ | %27
 F,/A,/!4!G,/B,/ A,/C/!5!G,/!3!=B,/) |[K:treble] (!2!C/!1!E/!3!C/E/ C/E/G,/!2!D/ | %29
 C/E/!4!D/!2!F/ !3!E/G/G,/!2!D/) | (!3!C/E/C/E/ C/E/G,/D/ | !3!C/E/!3!D/F/ !2!E) z :: %32
 (!^!!5!C,,3 _D,, | C,,!1!_A,, G,,2) | (!^!C,,3 _D,, | C,,!1!B,, _A,,2) | (!3!_D,3 !5!_A,, | %37
 !3!_D,_E,F,_A,,) | _D,!4!!2![D,=E,]!4!!1![D,F,]!4!!2![D,F,] | [C,G,] z z/ x/ x | %40
 (!4!F,/!1!A,/!3!F,/A,/ F,/A,/C,/G,/ | F,/A,/G,/B,/ A,/C/C,/G,/) | (F,/A,/F,/A,/ F,/A,/C,/G,/ | %43
 F,/A,/G,/B,/ A,/C/F,/A,/) | (!2!B,3 !5!F, |!<(! !3!B,C!<)!!>(!DB,)!>)! | (!4!A,C D.!2!G,) | %47
 (C,2 F,) z :|[K:C] !^!A,,,/B,,,/A,,,/B,,,/ !^!C,,/B,,,/C,,/B,,,/ | (!^!A,,,B,,,) (!^!C,,E,,) | %50
 (!^!A,,B,,) (!^!C,E,) | !3!E,E, A,2 | !^!A,,,/B,,,/A,,,/B,,,/ !^!C,,/B,,,/C,,/B,,,/ | %53
 (!^!A,,,B,,,) (!^!C,,E,,) | (!^!A,,B,,) (!^!C,E,) | E,E, A,2 | %56
 !^!_B,,/A,,/B,,/A,,/ !^!G,,/A,,/G,,/A,,/ | (!^!_B,,G,,) (!^!G,,E,,) | (!^!^C,,E,,) (!^!E,,G,,) | %59
 A,,A,, D,2 | !^!=C,/=B,,/C,/B,,/ !^!A,,/B,,/A,,/B,,/ | (!^!C,A,,) (!^!A,,^F,,) | %62
 (!^!^D,,^F,,) (!^!F,,A,,) | B,,B,, E,2 | !^!A,,/B,,/A,,/B,,/ !^!C,/B,,/C,/B,,/ | %65
 (A,,B,,) (!^!C,E,) | (!^!A,B,) (!^!CE) | E,E,!^!A,!^!A,, | !^!D,/E,/D,/E,/ !^!F,/E,/F,/E,/ | %69
 (!^!D,E,) (!^!F,A,) |[K:treble] (!^!DE) (!^!FA) | EE A2 |] %72
V:3
 x4 | x4 |[K:treble] x4 | x4 |[K:bass] x4 | x4 |[K:treble] x4 | x4 |: x4 | x4 |[K:treble] x4 | x4 | %12
[K:bass] x4 | x4 |[K:treble] x4 | x4 | x4 | x4 | x4 | x4 | x4 | x4 | x4 | x4 ::[K:F] x4 | x4 | x4 | %27
 x4 | x4 | x4 | x4 | x4 :: x4 | x4 | x4 | x4 | !3!_D/_A,/D/A,/ D/A,/C/A,/ | %37
 !2!_D/_A,/_G/A,/ _A/A,/C/A,/ | (F/_D/G/!<(!=E/ _A/F/B/F/)!<)! | x4 | x4 | x4 | x4 | x4 | %44
 !3!B/F/B/F/ B/F/A/F/ | !2!B/F/e/F/ f/F/d/F/ | c/F/A/E/ x2 | x4 :|[K:C][K:bass] x4 | x4 | %50
[K:treble] x4 | x4 |[K:bass] x4 | x4 |[K:treble] x4 | x4 |[K:bass] x4 | x4 |[K:treble] x4 | x4 | %60
[K:bass] x4 | x4 |[K:treble] x4 | x4 | x4 | x4 | x4 | x4 | x4 | x4 | x4 | x4 |] %72

